!!!COM: Vivaldi, Antonio
!!!CDT: 1678/03/04/-1741/07/27/
!!!OTL: Concerto in G Minor, Op. 6, No. 1
!!!OMV: No. 3
!!!OMD: Allegro
**kern	**kern	**kern	**kern	**kern	**kern	**kern	**kern
*staff8	*staff7	*staff6	*staff5	*staff4	*staff3	*staff2	*staff1
*Icemba	*Icemba	*Icbass	*Icello	*Iviola	*Ivioln	*Ivioln	*Ivioln
*clefF4	*clefG2	*clefF4	*clefF4	*clefC3	*clefG2	*clefG2	*clefG2
*k[b-]	*k[b-]	*k[b-]	*k[b-]	*k[b-]	*k[b-]	*k[b-]	*k[b-]
*M3/4	*M3/4	*M3/4	*M3/4	*M3/4	*M3/4	*M3/4	*M3/4
*MM120	*MM120	*MM120	*MM120	*MM120	*MM120	*MM120	*MM120
=1-	=1-	=1-	=1-	=1-	=1-	=1-	=1-
4GG/	2.r	4GG/	4GG/	8.G/L	8.d/L	8.g\L	8.g\L
.	.	.	.	16G/k	16d/k	16g\k	16g\k
4GG/	.	4GG/	4GG/	8.B-/	8.g/	8.b-\	8.b-\
.	.	.	.	16B-/k	16g/k	16b-\k	16b-\k
4GG/	.	4GG/	4GG/	8.d/	8.b-/	8.dd\	8.dd\
.	.	.	.	16d/Jk	16b-/Jk	16dd\Jk	16dd\Jk
=2	=2	=2	=2	=2	=2	=2	=2
4D\	2.r	4D\	4D\	8.A\L	8.d/L	8.f#/L	8.f#/L
.	.	.	.	16A\k	16d/k	16f#/k	16f#/k
4D\	.	4D\	4D\	8.c\	8.f#/	8.a/	8.a/
.	.	.	.	16c\k	16f#/k	16a/k	16a/k
4D\	.	4D\	4D\	8.f#\	8.a/	8.cc/	8.cc/
.	.	.	.	16f#\Jk	16a/Jk	16cc/Jk	16cc/Jk
=3	=3	=3	=3	=3	=3	=3	=3
4D\	2.r	4D\	4D\	8.a\L	8.cc\L	8.ff#\L	8.ff#\L
.	.	.	.	16a\k	16cc\k	16ff#\k	16ff#\k
4D\	.	4D\	4D\	8.d\	8.ff#\	8.aa\	8.aa\
.	.	.	.	16d\k	16ff#\k	16aa\k	16aa\k
4D\	.	4D\	4D\	8.f#\	8.a\	8.cc\	8.cc\
.	.	.	.	16f#\Jk	16a\Jk	16cc\Jk	16cc\Jk
=4	=4	=4	=4	=4	=4	=4	=4
4GG/	2.r	4GG/	4GG/	8.d\L	8.g/L	8.b-/L	8.b-/L
.	.	.	.	16d\k	16g/k	16b-/k	16b-/k
4GG/	.	4GG/	4GG/	8.B-\	8.d/	8.g/	8.g/
.	.	.	.	16B-\k	16d/k	16g/k	16g/k
4GG/	.	4GG/	4GG/	8.d\	8.g/	8.b-/	8.b-/
.	.	.	.	16d\Jk	16g/Jk	16b-/Jk	16b-/Jk
=5	=5	=5	=5	=5	=5	=5	=5
4GG/	2.r	4GG/	4GG/	8.g\L	8.b-\L	8.ee-\L	8.ee-\L
.	.	.	.	16g\k	16b-\k	16ee-\k	16ee-\k
4GG/	.	4GG/	4GG/	8.b-\	8.ee-\	8.gg\	8.gg\
.	.	.	.	16b-\k	16ee-\k	16gg\k	16gg\k
4GG/	.	4GG/	4GG/	8.g\	8.gg\	8.bb-\	8.bb-\
.	.	.	.	16g\Jk	16gg\Jk	16bb-\Jk	16bb-\Jk
=6	=6	=6	=6	=6	=6	=6	=6
4AA/	2.r	4AA/	4AA/	8.e\L	8.gg\L	8.cc#\L	8.cc#\L
.	.	.	.	16e\k	16gg\k	16cc#\k	16cc#\k
4AA/	.	4AA/	4AA/	8.c#\	8.een\	8.g\	8.g\
.	.	.	.	16c#\k	16ee\k	16g\k	16g\k
4AA/	.	4AA/	4AA/	8.A\	8.cc#\	8.ee\	8.ee\
.	.	.	.	16A\Jk	16cc#\Jk	16ee\Jk	16ee\Jk
=7	=7	=7	=7	=7	=7	=7	=7
4D\	2.r	4D\	4D\	8.A\L	8.a\L	8.f/L	8.f/L
.	.	.	.	16A\k	16a\k	16f/k	16f/k
4D\	.	4D\	4D\	8.f\	8.dd\	8.a/	8.a/
.	.	.	.	16f\k	16dd\k	16a/k	16a/k
4D\	.	4D\	4D\	8.a\	8.ff\	8.dd/	8.dd/
.	.	.	.	16a\Jk	16ff\Jk	16dd/Jk	16dd/Jk
=8	=8	=8	=8	=8	=8	=8	=8
4A\	2.r	4A\	4A\	8.c#\L	8.a\L	8.e/L	8.e/L
.	.	.	.	16c#\k	16a\k	16e/k	16e/k
4AA/	.	4AA/	4AA/	8.e\	8.cc#\	8.a/	8.a/
.	.	.	.	16e\k	16cc#\k	16a/k	16a/k
4AA/	.	4AA/	4AA/	8.a\	8.ee\	8.cc#/	8.cc#/
.	.	.	.	16a\Jk	16ee\Jk	16cc#/Jk	16cc#/Jk
=9	=9	=9	=9	=9	=9	=9	=9
8.D/L	2.r	8.D/L	8.D/L	4a\	4ff\	4dd\	4dd\
16D/k	.	16D/k	16D/k	.	.	.	.
8.D/	.	8.D/	8.D/	4r	4r	4r	4r
16D/k	.	16D/k	16D/k	.	.	.	.
8.C/	.	8.C/	8.C/	4r	4r	4r	4r
16C/Jk	.	16C/Jk	16C/Jk	.	.	.	.
=10	=10	=10	=10	=10	=10	=10	=10
4BBn/	2.r	4BBn/	4BBn/	8.Bn/L	4dd\	4gg\	4gg\
.	.	.	.	16B/k	.	.	.
4r	.	4r	4r	8.B/	[4dd\	[4gg\	[4gg\
.	.	.	.	16B/k	.	.	.
4r	.	4r	4r	8.B/	8.dd\L]	8.gg\L]	8.gg\L]
.	.	.	.	16B/Jk	16dd\Jk	16aa-\Jk	16aa-\Jk
=11	=11	=11	=11	=11	=11	=11	=11
2.r	2.r	2.r	2.r	8.Bn/L	4dd\	4ff\	4ff\
.	.	.	.	16B/k	.	.	.
.	.	.	.	8.B/	[4dd\	[4ff\	[4ff\
.	.	.	.	16B/k	.	.	.
.	.	.	.	8.B/	8.dd\L]	8.ff\L]	8.ff\L]
.	.	.	.	16B/Jk	16dd\Jk	16gg\Jk	16gg\Jk
=12	=12	=12	=12	=12	=12	=12	=12
8.C/L	2.r	8.C/L	8.C/L	4c/	4g/	4ee\	4ee\
16C/k	.	16C/k	16C/k	.	.	.	.
8.C/	.	8.C/	8.C/	4r	4r	4r	4r
16C/k	.	16C/k	16C/k	.	.	.	.
8.BB-/	.	8.BB-/	8.BB-/	4r	4r	4r	4r
16BB-/Jk	.	16BB-/Jk	16BB-/Jk	.	.	.	.
=13	=13	=13	=13	=13	=13	=13	=13
4AA/	2.r	4AA/	4AA/	8.A/L	4cc\	4ff\	4ff\
.	.	.	.	16A/k	.	.	.
4r	.	4r	4r	8.A/	[4cc\	[4ff\	[4ff\
.	.	.	.	16A/k	.	.	.
4r	.	4r	4r	8.A/	8.cc\L]	8.ff\L]	8.ff\L]
.	.	.	.	16A/Jk	16cc\Jk	16gg\Jk	16gg\Jk
=14	=14	=14	=14	=14	=14	=14	=14
2.r	2.r	2.r	2.r	8.A/L	4cc\	4ee-\	4ee-\
.	.	.	.	16A/k	.	.	.
.	.	.	.	8.A/	[4cc\	[4ee-\	[4ee-\
.	.	.	.	16A/k	.	.	.
.	.	.	.	8.A/	8.cc\L]	8.ee-\L]	8.ee-\L]
.	.	.	.	16A/Jk	16cc\Jk	16ff\Jk	16ff\Jk
=15	=15	=15	=15	=15	=15	=15	=15
8.BB-/L	2.r	8.BB-/L	8.BB-/L	4B-/	4b-\	4dd\	4dd\
16BB-/k	.	16BB-/k	16BB-/k	.	.	.	.
8.BB-/	.	8.BB-/	8.BB-/	4r	4r	4r	4r
16BB-/k	.	16BB-/k	16BB-/k	.	.	.	.
8.AA/	.	8.AA/	8.AA/	4r	4r	4r	4r
16AA/Jk	.	16AA/Jk	16AA/Jk	.	.	.	.
=16	=16	=16	=16	=16	=16	=16	=16
4GG/	2.r	4GG/	4GG/	8.g\L	8.b-\L	8.ee-\L	8.ee-\L
.	.	.	.	16g\k	16b-\k	16ee-\k	16ee-\k
4GG/	.	4GG/	4GG/	8.b-\	8.ee-\	8.gg\	8.gg\
.	.	.	.	16b-\k	16ee-\k	16gg\k	16gg\k
4GG/	.	4GG/	4GG/	8.e-\	8.gg\	8.bb-\	8.bb-\
.	.	.	.	16e-\Jk	16gg\Jk	16bb-\Jk	16bb-\Jk
=17	=17	=17	=17	=17	=17	=17	=17
4FF#/	2.r	4FF#/	4FF#/	8.d\L	8.a\L	8.cc\L	8.cc\L
.	.	.	.	16d\k	16a\k	16cc\k	16cc\k
4FF#/	.	4FF#/	4FF#/	8.a\	8.cc\	8.ff#\	8.ff#\
.	.	.	.	16a\k	16cc\k	16ff#\k	16ff#\k
4FF#/	.	4FF#/	4FF#/	8.f#\	8.dd\	8.aa\	8.aa\
.	.	.	.	16f#\Jk	16dd\Jk	16aa\Jk	16aa\Jk
=18	=18	=18	=18	=18	=18	=18	=18
4GG/	2.r	4GG/	4GG/	4d\	4dd\	4b-\	4b-\
4r	.	4r	4r	4r	4r	4r	4r
4r	.	4r	4r	4r	4r	4r	4r
=19	=19	=19	=19	=19	=19	=19	=19
8.BB-/L	2.r	8.BB-/L	8.BB-/L	8.B-\L	8.B-/L	8.B-/L	8.B-/L
16BB-/k	.	16BB-/k	16BB-/k	16B-\k	16B-/k	16B-/k	16B-/k
8.C/	.	8.C/	8.C/	8.c\	8.c/	8.c/	8.c/
16C/k	.	16C/k	16C/k	16c\k	16c/k	16c/k	16c/k
8.D/	.	8.D/	8.D/	8.d\	8.d/	8.d/	8.d/
16D/Jk	.	16D/Jk	16D/Jk	16d\Jk	16d/Jk	16d/Jk	16d/Jk
=20	=20	=20	=20	=20	=20	=20	=20
4E-\	2.r	4E-\	4E-\	4e-\	4e-/	4e-/	4e-/
4r	.	4r	4r	4r	4r	4r	4r
4r	.	4r	4r	4r	4r	4r	4r
=21	=21	=21	=21	=21	=21	=21	=21
8.BB-/L	2.r	8.BB-/L	8.BB-/L	8.B-\L	8.B-/L	8.B-/L	8.B-/L
16BB-/k	.	8BB-/	16BB-/k	16B-\k	16B-/k	16B-/k	16B-/k
8.C/	.	.	8.C/	8.c\	8.c/	8.c/	8.c/
.	.	8C/	.	.	.	.	.
16C/k	.	16C/k	16C/k	16c\k	16c/k	16c/k	16c/k
8.D/	.	8.D/	8.D/	8.d\	8.d/	8.d/	8.d/
16D/Jk	.	16D/Jk	16D/Jk	16d\Jk	16d/Jk	16d/Jk	16d/Jk
=22	=22	=22	=22	=22	=22	=22	=22
4GG/	2.r	4GG/	4GG/	4G/	4G/	4G/	4gg\
4r	.	4r	4r	4r	4g/	4g/	[4dd\
4r	.	4r	4r	4r	4g/	4g/	8.dd\L]
.	.	.	.	.	.	.	16ee-\Jk
=23	=23	=23	=23	=23	=23	=23	=23
2.r	2.r	2.r	2.r	2.r	4a/	4a\	4cc\
.	.	.	.	.	4f#/	4f#/	[4cc\
.	.	.	.	.	4d/	4d/	8.cc\L]
.	.	.	.	.	.	.	16dd\Jk
=24	=24	=24	=24	=24	=24	=24	=24
2.r	2.r	2.r	2.r	2.r	4g/	4g/	4b-\
.	.	.	.	.	4c#/	4c#/	8.b-\L
.	.	.	.	.	.	.	16a\k
.	.	.	.	.	4c#/	4c#/	8.b-\
.	.	.	.	.	.	.	16cc\Jk
=25	=25	=25	=25	=25	=25	=25	=25
2.r	2.r	2.r	2.r	2.r	2d/	2d/	2a/
.	.	.	.	.	4G/	4G/	32r
.	.	.	.	.	.	.	32g\LLL
.	.	.	.	.	.	.	32a\
.	.	.	.	.	.	.	32b-\
.	.	.	.	.	.	.	32cc\
.	.	.	.	.	.	.	32dd\
.	.	.	.	.	.	.	32ee\
.	.	.	.	.	.	.	32ff#\JJJ
=26	=26	=26	=26	=26	=26	=26	=26
2.r	2.r	2.r	2.r	2.r	4g/	4g/	4gg\
.	.	.	.	.	4g/	4g/	[4dd\
.	.	.	.	.	4g/	4g/	8.dd\L]
.	.	.	.	.	.	.	16ee-\Jk
=27	=27	=27	=27	=27	=27	=27	=27
2.r	2.r	2.r	2.r	2.r	4a/	4a/	4cc\
.	.	.	.	.	4f#/	4f#/	[4cc\
.	.	.	.	.	4d/	4d/	8.cc\L]
.	.	.	.	.	.	.	16dd\Jk
=28	=28	=28	=28	=28	=28	=28	=28
2.r	2.r	2.r	2.r	2.r	4g/	4g/	4b-\
.	.	.	.	.	4c#/	4c#/	8.b-\L
.	.	.	.	.	.	.	16a\k
.	.	.	.	.	4c#/	4c#/	8.b-\
.	.	.	.	.	.	.	16cc\Jk
=29	=29	=29	=29	=29	=29	=29	=29
2.r	2.r	2.r	2.r	2.r	2d/	2d/	2a/
.	.	.	.	.	4G/	4G/	4g/
=30	=30	=30	=30	=30	=30	=30	=30
2.r	2.r	2.r	2.r	2.r	8G/L	8G/L	8r
.	.	.	.	.	8G/	8G/	8g/
.	.	.	.	.	8G/	8G/	8g/L
.	.	.	.	.	8G/	8G/	16b-/L
.	.	.	.	.	.	.	16a/JJ
.	.	.	.	.	8G/	8G/	8b-\L
.	.	.	.	.	8G/J	8G/J	8dd\J
=31	=31	=31	=31	=31	=31	=31	=31
2.r	2.r	2.r	2.r	2.r	8G/L	8G/L	8dd\L
.	.	.	.	.	8G/	8G/	8b-\J
.	.	.	.	.	8G/	8G/	8b-\L
.	.	.	.	.	8G/	8G/	16dd\L
.	.	.	.	.	.	.	16cc\JJ
.	.	.	.	.	8G/	8G/	8dd\L
.	.	.	.	.	8G/J	8G/J	8gg\J
=32	=32	=32	=32	=32	=32	=32	=32
2.r	2.r	2.r	2.r	2.r	8G/L	8G/L	8gg\L
.	.	.	.	.	8G/	8G/	8dd\J
.	.	.	.	.	8G/	8G/	8dd\L
.	.	.	.	.	8G/	8G/	16gg\L
.	.	.	.	.	.	.	16ff#\JJ
.	.	.	.	.	8G/	8G/	8gg\L
.	.	.	.	.	8G/J	8G/J	8bb-\J
=33	=33	=33	=33	=33	=33	=33	=33
2.r	2.r	2.r	2.r	2.r	4G/	4G/	16bb-\LL
.	.	.	.	.	.	.	16dd\
.	.	.	.	.	.	.	16cc\
.	.	.	.	.	.	.	16dd\JJ
.	.	.	.	.	4r	4r	16bb-\LL
.	.	.	.	.	.	.	16dd\
.	.	.	.	.	.	.	16cc\
.	.	.	.	.	.	.	16dd\JJ
.	.	.	.	.	4r	4r	16bb-\LL
.	.	.	.	.	.	.	16dd\
.	.	.	.	.	.	.	16cc\
.	.	.	.	.	.	.	16dd\JJ
=34	=34	=34	=34	=34	=34	=34	=34
2.r	2.r	2.r	2.r	2.r	2.r	2.r	16aa\LL
.	.	.	.	.	.	.	16dd\
.	.	.	.	.	.	.	16cc\
.	.	.	.	.	.	.	16dd\JJ
.	.	.	.	.	.	.	16aa\LL
.	.	.	.	.	.	.	16dd\
.	.	.	.	.	.	.	16cc\
.	.	.	.	.	.	.	16dd\JJ
.	.	.	.	.	.	.	16aa\LL
.	.	.	.	.	.	.	16dd\
.	.	.	.	.	.	.	16cc\
.	.	.	.	.	.	.	16dd\JJ
=35	=35	=35	=35	=35	=35	=35	=35
2.r	2.r	2.r	2.r	2.r	2.r	2.r	16gg\LL
.	.	.	.	.	.	.	16dd\
.	.	.	.	.	.	.	16cc\
.	.	.	.	.	.	.	16dd\JJ
.	.	.	.	.	.	.	16gg\LL
.	.	.	.	.	.	.	16dd\
.	.	.	.	.	.	.	16cc\
.	.	.	.	.	.	.	16dd\JJ
.	.	.	.	.	.	.	16gg\LL
.	.	.	.	.	.	.	16dd\
.	.	.	.	.	.	.	16cc\
.	.	.	.	.	.	.	16dd\JJ
=36	=36	=36	=36	=36	=36	=36	=36
2.r	2.r	2.r	2.r	2.r	2.r	2.r	16ff#\LL
.	.	.	.	.	.	.	16dd\
.	.	.	.	.	.	.	16cc\
.	.	.	.	.	.	.	16dd\JJ
.	.	.	.	.	.	.	16ff#\LL
.	.	.	.	.	.	.	16dd\
.	.	.	.	.	.	.	16cc\
.	.	.	.	.	.	.	16dd\JJ
.	.	.	.	.	.	.	16ff#\LL
.	.	.	.	.	.	.	16dd\
.	.	.	.	.	.	.	16cc\
.	.	.	.	.	.	.	16dd\JJ
=37	=37	=37	=37	=37	=37	=37	=37
2.r	2.r	2.r	2.r	2.r	2.r	2.r	16ee-\LL
.	.	.	.	.	.	.	16dd\
.	.	.	.	.	.	.	16cc\
.	.	.	.	.	.	.	16dd\JJ
.	.	.	.	.	.	.	16ee-\LL
.	.	.	.	.	.	.	16dd\
.	.	.	.	.	.	.	16cc\
.	.	.	.	.	.	.	16ee-\JJ
.	.	.	.	.	.	.	16dd\LL
.	.	.	.	.	.	.	16cc\
.	.	.	.	.	.	.	16b-\
.	.	.	.	.	.	.	16a\JJ
=38	=38	=38	=38	=38	=38	=38	=38
8.GG/L	2.r	8.GG/L	8.GG/L	8.G/L	8.G/L	8.G/L	8b-/L
.	.	.	.	.	.	.	8a/J
16GG/k	.	16GG/k	16GG/k	16G/k	16G/k	16G/k	.
8.BB-/	.	8.BB-/	8.BB-/	8.B-/	8.B-/	8.B-/	4g/
16BB-/k	.	16BB-/k	16BB-/k	16B-/k	16B-/k	16B-/k	.
8.D/	.	8.D/	8.D/	8.d/	8.d/	8.d/	4r
16D/Jk	.	16D/Jk	16D/Jk	16d/Jk	16d/Jk	16d/Jk	.
=39	=39	=39	=39	=39	=39	=39	=39
4GG/	2.r	4GG/	4GG/	4G/	4G/	4G/	8r
.	.	.	.	.	.	.	8g/
8r	.	4r	8r	4r	4r	4r	8g/L
8G\	.	.	8G\	.	.	.	8b-/J
8G\L	.	4r	8G\L	4r	4r	4r	8b-\L
8GG\J	.	.	8GG\J	.	.	.	8dd\J
=40	=40	=40	=40	=40	=40	=40	=40
4GG/	2.r	2.r	4GG/	2.r	2.r	2.r	8dd\L
.	.	.	.	.	.	.	8gg\
8r	.	.	8r	.	.	.	8gg\
8F\	.	.	8F\	.	.	.	8aa-\
8F/L	.	.	8F/L	.	.	.	8aa-\
8FF/J	.	.	8FF/J	.	.	.	8ff\J
=41	=41	=41	=41	=41	=41	=41	=41
4FF/	2.r	2.r	4FF/	2.r	2.r	2.r	8ff\L
.	.	.	.	.	.	.	8dd\
8r	.	.	8r	.	.	.	8dd\
8F\	.	.	8F\	.	.	.	8ff\
8E-\L	.	.	8E-\L	.	.	.	8gg\
8F\J	.	.	8F\J	.	.	.	8aa-\J
=42	=42	=42	=42	=42	=42	=42	=42
4G\	2.r	2.r	4G\	2.r	2.r	2.r	8bn\L
.	.	.	.	.	.	.	8g\
8r	.	.	8r	.	.	.	8b\
8BBn/	.	.	8BBn/	.	.	.	8dd\
8GG/L	.	.	8GG/L	.	.	.	8ff\
8BB/J	.	.	8BB/J	.	.	.	8dd\J
=43	=43	=43	=43	=43	=43	=43	=43
8C/L	2.r	2.r	8C/L	2.r	2.r	2.r	4ee-\
8BBn/	.	.	8BBn/	.	.	.	.
8C/	.	.	8C/	.	.	.	8r
8E-/	.	.	8E-/	.	.	.	8cc\
8D/	.	.	8D/	.	.	.	8ee-\L
8C/J	.	.	8C/J	.	.	.	8gg\J
=44	=44	=44	=44	=44	=44	=44	=44
4c\	2.r	2.r	4c\	2.r	2.r	2.r	8aa-\L
.	.	.	.	.	.	.	8gg\
2d\	.	.	2d\	.	.	.	8ff#\
.	.	.	.	.	.	.	8dd\
.	.	.	.	.	.	.	8cc\
.	.	.	.	.	.	.	8ff#\J
=45	=45	=45	=45	=45	=45	=45	=45
4Bn\	2.r	2.r	4Bn\	2.r	2.r	2.r	8gg\L
.	.	.	.	.	.	.	8ffn\
2c\	.	.	2c\	.	.	.	8een\
.	.	.	.	.	.	.	8cc\
.	.	.	.	.	.	.	8b-\
.	.	.	.	.	.	.	8ee\J
=46	=46	=46	=46	=46	=46	=46	=46
2.A-\	2.r	2.r	2.A-\	2.r	2.r	2.r	8ff\L
.	.	.	.	.	.	.	8ee-\
.	.	.	.	.	.	.	8dd-\
.	.	.	.	.	.	.	8bn\
.	.	.	.	.	.	.	8cc\
.	.	.	.	.	.	.	8ddn\J
=47	=47	=47	=47	=47	=47	=47	=47
4G\	2.r	2.r	4G\	2.r	2.r	2.r	8g\L
.	.	.	.	.	.	.	8bn\
4E-\	.	.	4E-\	.	.	.	8cc\
.	.	.	.	.	.	.	8ee-\
4BBn/	.	.	4BBn/	.	.	.	8dd\
.	.	.	.	.	.	.	8ff\J
=48	=48	=48	=48	=48	=48	=48	=48
4C/	2.r	2.r	4C/	2.r	2.r	2.r	8ee-\L
.	.	.	.	.	.	.	8cc\J
4G\	.	.	4G\	.	.	.	4.bn\
4GG/	.	.	4GG/	.	.	.	.
.	.	.	.	.	.	.	8cc\
=49	=49	=49	=49	=49	=49	=49	=49
8.C/L	2.r	8.C/L	8.C/L	8.E-/L	8.G/L	8.c/L	8.c/L
16C/k	.	16C/k	16C/k	16E-/k	16G/k	16c/k	16c/k
8.C/	.	8.C/	8.C/	8.G/	8.c/	8.e-/	8.e-/
16C/k	.	16C/k	16C/k	16G/k	16c/k	16e-/k	16e-/k
8.C/	.	8.C/	8.C/	8.c/	8.e-/	8.g/	8.g/
16C/Jk	.	16C/Jk	16C/Jk	16c/Jk	16e-/Jk	16g/Jk	16g/Jk
=50	=50	=50	=50	=50	=50	=50	=50
8.GG/L	2.r	8.GG/L	8.GG/L	8.d/L	8.G/L	8.Bn/L	8.Bn/L
16GG/k	.	16GG/k	16GG/k	16d/k	16G/k	16B/k	16B/k
8.GG/	.	8.GG/	8.GG/	8.Bn/	8.Bn/	8.d/	8.d/
16GG/k	.	16GG/k	16GG/k	16B/k	16B/k	16d/k	16d/k
8.GG/	.	8.GG/	8.GG/	8.G/	8.d/	8.f/	8.f/
16GG/Jk	.	16GG/Jk	16GG/Jk	16G/Jk	16d/Jk	16f/Jk	16f/Jk
=51	=51	=51	=51	=51	=51	=51	=51
8.GG/L	2.r	8.GG/L	8.GG/L	8.d\L	8.g/L	8.bn/L	8.bn/L
16GG/k	.	16GG/k	16GG/k	16d\k	16g/k	16b/k	16b/k
8.GG/	.	8.GG/	8.GG/	8.g\	8.bn/	8.dd/	8.dd/
16GG/k	.	16GG/k	16GG/k	16g\k	16b/k	16dd/k	16dd/k
8.GG/	.	8.GG/	8.GG/	8.G\	8.d/	8.f/	8.f/
16GG/Jk	.	16GG/Jk	16GG/Jk	16G\Jk	16d/Jk	16f/Jk	16f/Jk
=52	=52	=52	=52	=52	=52	=52	=52
8.C/L	2.r	8.C/L	8.C/L	8.G/L	8.c/L	8.e-/L	8.e-/L
16C/k	.	16C/k	16C/k	16G/k	16c/k	16e-/k	16e-/k
8.C/	.	8.C/	8.C/	8.G/	8.G/	8.c/	8.c/
16C/k	.	16C/k	16C/k	16G/k	16G/k	16c/k	16c/k
8.C/	.	8.C/	8.C/	8.G/	8.c/	8.e-/	8.e-/
16C/Jk	.	16C/Jk	16C/Jk	16G/Jk	16c/Jk	16e-/Jk	16e-/Jk
=53	=53	=53	=53	=53	=53	=53	=53
8.C/L	2.r	8.C/L	8.C/L	8.G\L	8.e-\L	8.g\L	8.g\L
16C/k	.	16C/k	16C/k	16G\k	16e-\k	16g\k	16g\k
8.C/	.	8.C/	8.C/	8.e-\	8.a-\	8.cc\	8.cc\
16C/k	.	16C/k	16C/k	16e-\k	16a-\k	16cc\k	16cc\k
8.FF/	.	8.FF/	8.FF/	8.f\	8.ff\	8.aa-\	8.aa-\
16FF/Jk	.	16FF/Jk	16FF/Jk	16f\Jk	16ff\Jk	16aa-\Jk	16aa-\Jk
=54	=54	=54	=54	=54	=54	=54	=54
8.GG\L	2.r	8.GG\L	8.GG\L	4d\	4ff\	4bn\	4bn\
16G\k	.	16G\k	16G\k	.	.	.	.
8.D\	.	8.D\	8.D\	4r	4r	4r	4r
16D\k	.	16D\k	16D\k	.	.	.	.
8.BBn\	.	8.BBn\	8.BBn\	4r	4r	4r	4r
16BB\Jk	.	16BB\Jk	16BB\Jk	.	.	.	.
=55	=55	=55	=55	=55	=55	=55	=55
4GG/	2.r	4GG/	4GG/	8.Bn/L	4dd\	4gg\	4gg\
.	.	.	.	16B/k	.	.	.
4r	.	4r	4r	8.B/	[4dd\	[4gg\	[4gg\
.	.	.	.	16B/k	.	.	.
4r	.	4r	4r	8.B/	8.dd\L]	8.gg\L]	8.gg\L]
.	.	.	.	16B/Jk	16dd\Jk	16aa-\Jk	16aa-\Jk
=56	=56	=56	=56	=56	=56	=56	=56
2.r	2.r	2.r	2.r	8.G/L	4dd\	4ff\	4ff\
.	.	.	.	16G/k	.	.	.
.	.	.	.	8.G/	[4dd\	[4ff\	[4ff\
.	.	.	.	16G/k	.	.	.
.	.	.	.	8.G/	8.dd\L]	8.ff\L]	8.ff\L]
.	.	.	.	16G/Jk	16dd\Jk	16gg\Jk	16gg\Jk
=57	=57	=57	=57	=57	=57	=57	=57
2.r	2.r	2.r	2.r	8.c/L	4cc\	4ee-\	4ee-\
.	.	.	.	16c/k	.	.	.
.	.	.	.	8.F#/	[4cc\	[4ee-\	[4ee-\
.	.	.	.	16F#/k	.	.	.
.	.	.	.	8.F#/	8.cc\L]	8.ee-\L]	8.ee-\L]
.	.	.	.	16F#/Jk	16cc\Jk	16ff\Jk	16ff\Jk
=58	=58	=58	=58	=58	=58	=58	=58
4GG/	2.r	4GG/	4GG/	4G/	4bn\	4dd\	8dd\L
.	.	.	.	.	.	.	16g\L
.	.	.	.	.	.	.	16a\JJ
4G\	.	4r	4G\	4r	4r	4r	16bn\LL
.	.	.	.	.	.	.	16cc\
.	.	.	.	.	.	.	16dd\
.	.	.	.	.	.	.	16een\JJ
4BBn/	.	4r	4BBn/	4r	4r	4r	8ff\L
.	.	.	.	.	.	.	8dd\J
=59	=59	=59	=59	=59	=59	=59	=59
4C/	2.r	2.r	4C/	2.r	2.r	2.r	8ee\L
.	.	.	.	.	.	.	16cc\L
.	.	.	.	.	.	.	16dd\JJ
4c\	.	.	4c\	.	.	.	16ee\LL
.	.	.	.	.	.	.	16ff\
.	.	.	.	.	.	.	16gg\
.	.	.	.	.	.	.	16aa\JJ
4E\	.	.	4E\	.	.	.	8bb-\L
.	.	.	.	.	.	.	8gg\J
=60	=60	=60	=60	=60	=60	=60	=60
4F\	2.r	2.r	4F\	2.r	2.r	2.r	8aa\L
.	.	.	.	.	.	.	16f\L
.	.	.	.	.	.	.	16g\JJ
4F\	.	.	4F\	.	.	.	16a\LL
.	.	.	.	.	.	.	16b-\
.	.	.	.	.	.	.	16cc\
.	.	.	.	.	.	.	16dd\JJ
4AA/	.	.	4AA/	.	.	.	8ee-\L
.	.	.	.	.	.	.	8cc\J
=61	=61	=61	=61	=61	=61	=61	=61
4BB-/	2.r	2.r	4BB-/	2.r	2.r	2.r	8dd\L
.	.	.	.	.	.	.	16b-\L
.	.	.	.	.	.	.	16cc\JJ
4B-\	.	.	4B-\	.	.	.	16dd\LL
.	.	.	.	.	.	.	16ee-\
.	.	.	.	.	.	.	16ff\
.	.	.	.	.	.	.	16gg\JJ
4D\	.	.	4D\	.	.	.	8aa-\L
.	.	.	.	.	.	.	8ff\J
=62	=62	=62	=62	=62	=62	=62	=62
4E-\	2.r	2.r	4E-\	2.r	2.r	2.r	8gg\L
.	.	.	.	.	.	.	16e-\L
.	.	.	.	.	.	.	16f\JJ
4r	.	.	4r	.	.	.	16g/LL
.	.	.	.	.	.	.	16a-/
.	.	.	.	.	.	.	16b-/
.	.	.	.	.	.	.	16cc/JJ
4BB-/	.	.	4BB-/	.	.	.	8dd-\L
.	.	.	.	.	.	.	8b-\J
=63	=63	=63	=63	=63	=63	=63	=63
4AA/	2.r	2.r	4AA/	2.r	2.r	2.r	8cc/L
.	.	.	.	.	.	.	16f/L
.	.	.	.	.	.	.	16g/JJ
4r	.	.	4r	.	.	.	16a\LL
.	.	.	.	.	.	.	16b-\
.	.	.	.	.	.	.	16cc\
.	.	.	.	.	.	.	16dd\JJ
4C/	.	.	4C/	.	.	.	8ee-\L
.	.	.	.	.	.	.	8cc\J
=64	=64	=64	=64	=64	=64	=64	=64
4BB-/	2.r	2.r	4BB-/	2.r	2.r	2.r	8dd/L
.	.	.	.	.	.	.	16g/L
.	.	.	.	.	.	.	16a/JJ
4r	.	.	4r	.	.	.	16b-\LL
.	.	.	.	.	.	.	16cc\
.	.	.	.	.	.	.	16dd\
.	.	.	.	.	.	.	16ee\JJ
4D\	.	.	4D\	.	.	.	8ff\L
.	.	.	.	.	.	.	8dd\J
=65	=65	=65	=65	=65	=65	=65	=65
4C/	2.r	2.r	4C/	2.r	2.r	2.r	8ee\L
.	.	.	.	.	.	.	16a\L
.	.	.	.	.	.	.	16bn\JJ
4r	.	.	4r	.	.	.	16cc#\LL
.	.	.	.	.	.	.	16dd\
.	.	.	.	.	.	.	16ee\
.	.	.	.	.	.	.	16ff\JJ
4C#/	.	.	4C#/	.	.	.	8gg\L
.	.	.	.	.	.	.	8ee\J
=66	=66	=66	=66	=66	=66	=66	=66
8.D\L	2.r	8.D\L	8.D\L	8.d\L	8.d/L	8.d/L	4ff\
16D\k	.	16D\k	16D\k	16d\k	16d/k	16d/k	.
8.F\	.	8.F\	8.F\	8.f\	8.f/	8.f/	4r
16F\k	.	16F\k	16F\k	16f\k	16f/k	16f/k	.
8.A\	.	8.A\	8.A\	8.a\	8.a/	8.a/	4r
16A\Jk	.	16A\Jk	16A\Jk	16a\Jk	16a/Jk	16a/Jk	.
=67	=67	=67	=67	=67	=67	=67	=67
4D\	2.r	4D\	4D\	4d\	16ff\LL	4d/	16ff\LL
.	.	.	.	.	16dd\	.	16dd\
.	.	.	.	.	16ff\	.	16ff\
.	.	.	.	.	16aa\JJ	.	16aa\JJ
4r	.	4r	4r	4r	16ff\LL	4r	16ff\LL
.	.	.	.	.	16dd\	.	16dd\
.	.	.	.	.	16ff\	.	16ff\
.	.	.	.	.	16aa\JJ	.	16aa\JJ
4r	.	4r	4r	4r	16ff\LL	4r	16ff\LL
.	.	.	.	.	16dd\	.	16dd\
.	.	.	.	.	16ff\	.	16ff\
.	.	.	.	.	16aa\JJ	.	16aa\JJ
=68	=68	=68	=68	=68	=68	=68	=68
8.D\L	2.r	8.D\L	8.D\L	8.d\L	2dd\	8.d/L	2dd\
16D\k	.	16D\k	16D\k	16d\k	.	16d/k	.
8.F\	.	8.F\	8.F\	8.f\	.	8.f/	.
16F\k	.	16F\k	16F\k	16f\k	.	16f/k	.
8.A\	.	8.A\	8.A\	8.a\	4r	8.a/	4r
16A\Jk	.	16A\Jk	16A\Jk	16a\Jk	.	16a/Jk	.
=69	=69	=69	=69	=69	=69	=69	=69
4D\	2.r	4D\	4D\	4d\	16a/LL	4d/	16a/LL
.	.	.	.	.	16f/	.	16f/
.	.	.	.	.	16a/	.	16a/
.	.	.	.	.	16dd/JJ	.	16dd/JJ
4r	.	4r	4r	4r	16a/LL	4r	16a/LL
.	.	.	.	.	16f/	.	16f/
.	.	.	.	.	16a/	.	16a/
.	.	.	.	.	16dd/JJ	.	16dd/JJ
4r	.	4r	4r	4r	16a/LL	4r	16a/LL
.	.	.	.	.	16f/	.	16f/
.	.	.	.	.	16a/	.	16a/
.	.	.	.	.	16dd/JJ	.	16dd/JJ
=70	=70	=70	=70	=70	=70	=70	=70
8.D\L	2.r	8.D\L	8.D\L	8.d\L	2a/	8.d/L	2a/
16D\k	.	16D\k	16D\k	16d\k	.	16d/k	.
8.F\	.	8.F\	8.F\	8.f\	.	8.f/	.
16F\k	.	16F\k	16F\k	16f\k	.	16f/k	.
8.A\	.	8.A\	8.A\	8.a\	4r	8.a/	4r
16A\Jk	.	16A\Jk	16A\Jk	16a\Jk	.	16a/Jk	.
=71	=71	=71	=71	=71	=71	=71	=71
4D\	2.r	4D\	4D\	4d\	16f/LL	4d/	16f/LL
.	.	.	.	.	16d/	.	16d/
.	.	.	.	.	16f/	.	16f/
.	.	.	.	.	16a/JJ	.	16a/JJ
4r	.	4r	4r	4r	16f/LL	4r	16f/LL
.	.	.	.	.	16d/	.	16d/
.	.	.	.	.	16f/	.	16f/
.	.	.	.	.	16a/JJ	.	16a/JJ
4r	.	4r	4r	4r	16f/LL	4r	16f/LL
.	.	.	.	.	16d/	.	16d/
.	.	.	.	.	16f/	.	16f/
.	.	.	.	.	16a/JJ	.	16a/JJ
=72	=72	=72	=72	=72	=72	=72	=72
8.D\L	2.r	8.D\L	8.D\L	8.d\L	2d/	8.d/L	2d/
16D\k	.	16D\k	16D\k	16d\k	.	16d/k	.
8.F\	.	8.F\	8.F\	8.f\	.	8.f/	.
16F\k	.	16F\k	16F\k	16f\k	.	16f/k	.
8.A\	.	8.A\	8.A\	8.a\	4r	8.a/	4r
16A\Jk	.	16A\Jk	16A\Jk	16a\Jk	.	16a/Jk	.
=73	=73	=73	=73	=73	=73	=73	=73
4D\	2.r	4D\	4D\	4d\	4d/	4d/	16ff\LL
.	.	.	.	.	.	.	16dd\
.	.	.	.	.	.	.	16ff\
.	.	.	.	.	.	.	16aa\JJ
4r	.	4r	4r	4r	4r	4r	16ff\LL
.	.	.	.	.	.	.	16dd\
.	.	.	.	.	.	.	16ff\
.	.	.	.	.	.	.	16aa\JJ
4r	.	4r	4r	4r	4r	4r	16ff\LL
.	.	.	.	.	.	.	16dd\
.	.	.	.	.	.	.	16ff\
.	.	.	.	.	.	.	16aa\JJ
=74	=74	=74	=74	=74	=74	=74	=74
8.G\L	2.r	2.r	8.G\L	2.r	2.r	2.r	4bb-\
16G\k	.	.	16G\k	.	.	.	.
8.G\	.	.	8.G\	.	.	.	16r
.	.	.	.	.	.	.	16dd\LL
.	.	.	.	.	.	.	16gg\
16G\k	.	.	16G\k	.	.	.	16bb-\JJ
8.G\	.	.	8.G\	.	.	.	16gg\LL
.	.	.	.	.	.	.	16dd\
.	.	.	.	.	.	.	16gg\
16G\Jk	.	.	16G\Jk	.	.	.	16bb-\JJ
=75	=75	=75	=75	=75	=75	=75	=75
4C/	2.r	2.r	4C/	2.r	2.r	2.r	16ee\LL
.	.	.	.	.	.	.	16cc\
.	.	.	.	.	.	.	16ee\
.	.	.	.	.	.	.	16gg\JJ
4r	.	.	4r	.	.	.	16ee\LL
.	.	.	.	.	.	.	16cc\
.	.	.	.	.	.	.	16ee\
.	.	.	.	.	.	.	16gg\JJ
4r	.	.	4r	.	.	.	16ee\LL
.	.	.	.	.	.	.	16cc\
.	.	.	.	.	.	.	16ee\
.	.	.	.	.	.	.	16gg\JJ
=76	=76	=76	=76	=76	=76	=76	=76
8.F\L	2.r	2.r	8.F\L	2.r	2.r	2.r	4aa\
16F\k	.	.	16F\k	.	.	.	.
8.F\	.	.	8.F\	.	.	.	16r
.	.	.	.	.	.	.	16cc\LL
.	.	.	.	.	.	.	16ff\
16F\k	.	.	16F\k	.	.	.	16aa\JJ
8.F\	.	.	8.F\	.	.	.	16ff\LL
.	.	.	.	.	.	.	16cc\
.	.	.	.	.	.	.	16ff\
16F\Jk	.	.	16F\Jk	.	.	.	16aa\JJ
=77	=77	=77	=77	=77	=77	=77	=77
4BB-/	2.r	2.r	4BB-/	2.r	2.r	2.r	16dd\LL
.	.	.	.	.	.	.	16b-\
.	.	.	.	.	.	.	16dd\
.	.	.	.	.	.	.	16ff\JJ
4r	.	.	4r	.	.	.	16dd\LL
.	.	.	.	.	.	.	16b-\
.	.	.	.	.	.	.	16dd\
.	.	.	.	.	.	.	16ff\JJ
4r	.	.	4r	.	.	.	16dd\LL
.	.	.	.	.	.	.	16b-\
.	.	.	.	.	.	.	16dd\
.	.	.	.	.	.	.	16ff\JJ
=78	=78	=78	=78	=78	=78	=78	=78
8.E\L	2.r	2.r	8.E\L	2.r	2.r	2.r	4gg\
16E\k	.	.	16E\k	.	.	.	.
8.E\	.	.	8.E\	.	.	.	16r
.	.	.	.	.	.	.	16b-\LL
.	.	.	.	.	.	.	16ee\
16E\k	.	.	16E\k	.	.	.	16gg\JJ
8.E\	.	.	8.E\	.	.	.	16ee\LL
.	.	.	.	.	.	.	16b-\
.	.	.	.	.	.	.	16ee\
16E\Jk	.	.	16E\Jk	.	.	.	16gg\JJ
=79	=79	=79	=79	=79	=79	=79	=79
8.AA/L	2.r	2.r	8.AA/L	2.r	2.r	2.r	16cc#\LL
.	.	.	.	.	.	.	16a\
.	.	.	.	.	.	.	16cc#\
16AA/k	.	.	16AA/k	.	.	.	16ee\JJ
8.AA/	.	.	8.AA/	.	.	.	16cc#\LL
.	.	.	.	.	.	.	16a\
.	.	.	.	.	.	.	16cc#\
16AA/k	.	.	16AA/k	.	.	.	16ee\JJ
8.AA/	.	.	8.AA/	.	.	.	16cc#\LL
.	.	.	.	.	.	.	16a\
.	.	.	.	.	.	.	16cc#\
16AA/Jk	.	.	16AA/Jk	.	.	.	16ee\JJ
=80	=80	=80	=80	=80	=80	=80	=80
8.AA/L	2.r	2.r	8.AA/L	2.r	2.r	2.r	16dd\LL
.	.	.	.	.	.	.	16a\
.	.	.	.	.	.	.	16dd\
16AA/k	.	.	16AA/k	.	.	.	16ff\JJ
8.AA/	.	.	8.AA/	.	.	.	16dd\LL
.	.	.	.	.	.	.	16a\
.	.	.	.	.	.	.	16dd\
16AA/k	.	.	16AA/k	.	.	.	16ff\JJ
8.AA/	.	.	8.AA/	.	.	.	16dd\LL
.	.	.	.	.	.	.	16a\
.	.	.	.	.	.	.	16dd\
16AA/Jk	.	.	16AA/Jk	.	.	.	16ff\JJ
=81	=81	=81	=81	=81	=81	=81	=81
8.AA/L	2.r	2.r	8.AA/L	2.r	2.r	2.r	16ee\LL
.	.	.	.	.	.	.	16a\
.	.	.	.	.	.	.	16ee\
16AA/k	.	.	16AA/k	.	.	.	16gg\JJ
8.AA/	.	.	8.AA/	.	.	.	16ee\LL
.	.	.	.	.	.	.	16a\
.	.	.	.	.	.	.	16ee\
16AA/k	.	.	16AA/k	.	.	.	16gg\JJ
8.AA/	.	.	8.AA/	.	.	.	16ee\LL
.	.	.	.	.	.	.	16a\
.	.	.	.	.	.	.	16ee\
16AA/Jk	.	.	16AA/Jk	.	.	.	16gg\JJ
=82	=82	=82	=82	=82	=82	=82	=82
8.D\L	2.r	2.r	8.D\L	2.r	2.r	2.r	16ff\LL
.	.	.	.	.	.	.	16a\
.	.	.	.	.	.	.	16ff\
16D\k	.	.	16D\k	.	.	.	16aa\JJ
8.D\	.	.	8.D\	.	.	.	16ff\LL
.	.	.	.	.	.	.	16a\
.	.	.	.	.	.	.	16ff\
16D\k	.	.	16D\k	.	.	.	16aa\JJ
8.D\	.	.	8.D\	.	.	.	16ff\LL
.	.	.	.	.	.	.	16a\
.	.	.	.	.	.	.	16ff\
16D\Jk	.	.	16D\Jk	.	.	.	16aa\JJ
=83	=83	=83	=83	=83	=83	=83	=83
8.GG/L	2.r	2.r	8.GG/L	2.r	2.r	2.r	16gg\LL
.	.	.	.	.	.	.	16bb-\
.	.	.	.	.	.	.	16aa\
16GG/k	.	.	16GG/k	.	.	.	16bb-\JJ
8.GG/	.	.	8.GG/	.	.	.	16gg\LL
.	.	.	.	.	.	.	16aa\
.	.	.	.	.	.	.	16ff\
16GG/k	.	.	16GG/k	.	.	.	16gg\JJ
8.GG#/	.	.	8.GG#/	.	.	.	16ee\LL
.	.	.	.	.	.	.	16ff\
.	.	.	.	.	.	.	16dd\
16GG#/Jk	.	.	16GG#/Jk	.	.	.	16ee\JJ
=84	=84	=84	=84	=84	=84	=84	=84
4AA/	2.r	4AA/	4AA/	8.A\L	8.c#/L	8.c#/L	4cc#\
.	.	.	.	16A\k	16c#/k	16c#/k	.
4AA/	.	4AA/	4AA/	8.c#\	8.e/	8.e/	8.e/L
.	.	.	.	16c#\k	16e/k	16e/k	16e/k
4AA/	.	4AA/	4AA/	8.e\	8.g/	8.g/	8.g/
.	.	.	.	16e\Jk	16g/Jk	16g/Jk	16g/Jk
=85	=85	=85	=85	=85	=85	=85	=85
4AA/	2.r	4AA/	4AA/	8.e\L	8.cc#\L	8.cc#\L	8.cc#\L
.	.	.	.	16e\k	16cc#\k	16cc#\k	16cc#\k
4AA/	.	4AA/	4AA/	8.a\	8.ee\	8.ee\	8.ee\
.	.	.	.	16a\k	16ee\k	16ee\k	16ee\k
4AA/	.	4AA/	4AA/	8.e\	8.g\	8.g\	8.g\
.	.	.	.	16c#\Jk	16g\Jk	16g\Jk	16g\Jk
=86	=86	=86	=86	=86	=86	=86	=86
4D\	2.r	4D\	4D\	8.A\L	8.f/L	8.f/L	8.f/L
.	.	.	.	16A\k	16f/k	16f/k	16f/k
4D\	.	4D\	4D\	8.f\	8.a/	8.a/	8.a/
.	.	.	.	16f\k	16a/k	16a/k	16a/k
4D\	.	4D\	4D\	8.f\	8.dd/	8.dd/	8.dd/
.	.	.	.	16f\Jk	16dd/Jk	16dd/Jk	16dd/Jk
=87	=87	=87	=87	=87	=87	=87	=87
4GG/	2.r	4GG/	4GG/	8.B-\L	8.ee-\L	8.ee-\L	8.ee-\L
.	.	.	.	16B-\k	16ee-\k	16ee-\k	16ee-\k
4GG/	.	4GG/	4GG/	8.B-\	8.gg\	8.gg\	8.gg\
.	.	.	.	16B-\k	16gg\k	16gg\k	16gg\k
4GG/	.	4GG/	4GG/	8.e-\	8.bb-\	8.bb-\	8.bb-\
.	.	.	.	16e-\Jk	16bb-\Jk	16bb-\Jk	16bb-\Jk
=88	=88	=88	=88	=88	=88	=88	=88
4AA/	2.r	4AA/	4AA/	8.en\L	8.cc#\L	8.cc#\L	8.cc#\L
.	.	.	.	16e\k	16cc#\k	16cc#\k	16cc#\k
4AA/	.	4AA/	4AA/	8.e\	8.g\	8.g\	8.g\
.	.	.	.	16e\k	16g\k	16g\k	16g\k
4AA/	.	4AA/	4AA/	8.c#\	8.ee\	8.ee\	8.ee\
.	.	.	.	16c#\Jk	16ee\Jk	16ee\Jk	16ee\Jk
=89	=89	=89	=89	=89	=89	=89	=89
4D\	2.r	4D\	4D\	8.A\L	8.f/L	8.f/L	8.f/L
.	.	.	.	16A\k	16f/k	16f/k	16f/k
4D\	.	4D\	4D\	8.f\	8.a/	8.a/	8.a/
.	.	.	.	16f\k	16a/k	16a/k	16a/k
4D\	.	4D\	4D\	8.a\	8.dd/	8.dd/	8.dd/
.	.	.	.	16a\Jk	16dd/Jk	16dd/Jk	16dd/Jk
=90	=90	=90	=90	=90	=90	=90	=90
4A\	2.r	4A\	4A\	8.c#\L	8.e/L	8.e/L	8.e/L
.	.	.	.	16c#\k	16e/k	16e/k	16e/k
4AA/	.	4AA/	4AA/	8.e\	8.a/	8.a/	8.a/
.	.	.	.	16e\k	16a/k	16a/k	16a/k
4AA/	.	4AA/	4AA/	8.a\	8.cc#/	8.cc#/	8.cc#/
.	.	.	.	16a\Jk	16cc#/Jk	16cc#/Jk	16cc#/Jk
=91	=91	=91	=91	=91	=91	=91	=91
*	*	*	*^	*	*	*	*
2.D\	2.r	4D\	4D/	2.D\	4f\	4dd\	4dd\	8dd\L
.	.	.	.	.	.	.	.	8a\
.	.	4r	4r	.	4r	4r	4r	8dd\
.	.	.	.	.	.	.	.	8ee\
.	.	4r	4r	.	4r	4r	4r	8ff\
.	.	.	.	.	.	.	.	8gg\J
*	*	*	*v	*v	*	*	*	*
=92	=92	=92	=92	=92	=92	=92	=92
2.F#\	2.r	2.r	2.F#\	2.r	2.r	2.r	8aa\L
.	.	.	.	.	.	.	8ff#\
.	.	.	.	.	.	.	8ee\
.	.	.	.	.	.	.	8dd\
.	.	.	.	.	.	.	8ee-\
.	.	.	.	.	.	.	8cc\J
=93	=93	=93	=93	=93	=93	=93	=93
2.G\	2.r	2.r	2.G\	2.r	2.r	2.r	8bn/L
.	.	.	.	.	.	.	8g/
.	.	.	.	.	.	.	8fn/
.	.	.	.	.	.	.	8b/
.	.	.	.	.	.	.	8dd/
.	.	.	.	.	.	.	8b/J
=94	=94	=94	=94	=94	=94	=94	=94
2.E-\	2.r	2.r	2.E-\	2.r	2.r	2.r	8cc\L
.	.	.	.	.	.	.	8g\
.	.	.	.	.	.	.	8cc\
.	.	.	.	.	.	.	8dd\
.	.	.	.	.	.	.	8ee-\
.	.	.	.	.	.	.	8ff\J
=95	=95	=95	=95	=95	=95	=95	=95
2.En\	2.r	2.r	2.En\	2.r	2.r	2.r	8gg\L
.	.	.	.	.	.	.	8een\
.	.	.	.	.	.	.	8dd\
.	.	.	.	.	.	.	8cc\
.	.	.	.	.	.	.	8dd\
.	.	.	.	.	.	.	8b-\J
=96	=96	=96	=96	=96	=96	=96	=96
2.F\	2.r	2.r	2.F\	2.r	2.r	2.r	8a/L
.	.	.	.	.	.	.	8f/
.	.	.	.	.	.	.	8e-/
.	.	.	.	.	.	.	8a/
.	.	.	.	.	.	.	8cc/
.	.	.	.	.	.	.	8a/J
=97	=97	=97	=97	=97	=97	=97	=97
2D\	2.r	2.r	2D\	2.r	2.r	2.r	8b-\L
.	.	.	.	.	.	.	8f\
.	.	.	.	.	.	.	8b-\
.	.	.	.	.	.	.	8cc\
4C/	.	.	4C/	.	.	.	8dd\
.	.	.	.	.	.	.	8ee-\J
=98	=98	=98	=98	=98	=98	=98	=98
4D\	2.r	2.r	4D\	2.r	2.r	2.r	8f#\L
.	.	.	.	.	.	.	8ee-\
2F#\	.	.	2F#\	.	.	.	8dd\
.	.	.	.	.	.	.	8cc\
.	.	.	.	.	.	.	8b-\
.	.	.	.	.	.	.	8a\J
=99	=99	=99	=99	=99	=99	=99	=99
8.GG/L	2.r	8.GG/L	8.GG/L	8.B-\L	8.d/L	8.g/L	4b-\
16GG/k	.	16GG/k	16GG/k	16B-\k	16d/k	16g/k	.
8.GG/	.	8.GG/	8.GG/	8.d\	8.g/	8.b-/	4g/
16GG/k	.	16GG/k	16GG/k	16d\k	16g/k	16b-/k	.
8.GG/	.	8.GG/	8.GG/	8.g\	8.b-/	8.dd/	4r
16GG/Jk	.	16GG/Jk	16GG/Jk	16g\Jk	16b-/Jk	16dd/Jk	.
=100	=100	=100	=100	=100	=100	=100	=100
8.D\L	2.r	8.D\L	8.D\L	8.A\L	8.d/L	8.f#\L	8.f#\L
16D\k	.	16D\k	16D\k	16A\k	16d/k	16f#\k	16f#\k
8.D\	.	8.D\	8.D\	8.d\	8.f#/	8.a\	8.a\
16D\k	.	16D\k	16D\k	16d\k	16f#/k	16a\k	16a\k
8.D\	.	8.D\	8.D\	8.f#\	8.a/	8.dd\	8.dd\
16D\Jk	.	16D\Jk	16D\Jk	16f#\Jk	16a/Jk	16dd\Jk	16dd\Jk
=101	=101	=101	=101	=101	=101	=101	=101
*	*	*	*^	*	*	*	*
[2.GG/	2.r	4GG/	4GG/	[2.GG\	4d\	4g/	4b-\	8b-\L
.	.	.	.	.	.	.	.	8gg\
.	.	4r	4r	.	4r	4r	4r	8aa\
.	.	.	.	.	.	.	.	8bb-\
.	.	4r	4r	.	4r	4r	4r	8aa\
.	.	.	.	.	.	.	.	8gg\J
*	*	*	*v	*v	*	*	*	*
=102	=102	=102	=102	=102	=102	=102	=102
2.GG/_	2.r	2.r	2.GG/_	2.r	2.r	2.r	8ee-\L
.	.	.	.	.	.	.	8gg\
.	.	.	.	.	.	.	8aa\
.	.	.	.	.	.	.	8bb-\
.	.	.	.	.	.	.	8aa\
.	.	.	.	.	.	.	8gg\J
=103	=103	=103	=103	=103	=103	=103	=103
2.GG/_	2.r	2.r	2.GG/_	2.r	2.r	2.r	8dd\L
.	.	.	.	.	.	.	8gg\
.	.	.	.	.	.	.	8aa\
.	.	.	.	.	.	.	8bb-\
.	.	.	.	.	.	.	8aa\
.	.	.	.	.	.	.	8gg\J
=104	=104	=104	=104	=104	=104	=104	=104
2.GG/_	2.r	2.r	2.GG/_	2.r	2.r	2.r	8cc\L
.	.	.	.	.	.	.	8gg\
.	.	.	.	.	.	.	8aa\
.	.	.	.	.	.	.	8bb-\
.	.	.	.	.	.	.	8aa\
.	.	.	.	.	.	.	8gg\J
=105	=105	=105	=105	=105	=105	=105	=105
2.GG/]	2.r	2.r	2.GG/]	2.r	2.r	2.r	8b-\L
.	.	.	.	.	.	.	8gg\
.	.	.	.	.	.	.	8aa\
.	.	.	.	.	.	.	8bb-\
.	.	.	.	.	.	.	8aa\
.	.	.	.	.	.	.	8gg\J
=106	=106	=106	=106	=106	=106	=106	=106
2.D\	2.r	2.r	2.D\	2.r	2.r	2.r	8ff#\L
.	.	.	.	.	.	.	8ee\
.	.	.	.	.	.	.	8dd\
.	.	.	.	.	.	.	8cc\
.	.	.	.	.	.	.	8b-\
.	.	.	.	.	.	.	8a\J
=107	=107	=107	=107	=107	=107	=107	=107
4G\	2.r	4G\	4G\	8.d\L	8.g\L	8.b-\L	8.b-\L
.	.	.	.	16d\k	16g\k	16b-\k	16b-\k
4G\	.	4G\	4G\	8.g\	8.b-\	8.dd\	8.dd\
.	.	.	.	16g\k	16b-\k	16dd\k	16dd\k
4G\	.	4G\	4G\	8.b-\	8.dd\	8.gg\	8.gg\
.	.	.	.	16b-\Jk	16dd\Jk	16gg\Jk	16gg\Jk
=108	=108	=108	=108	=108	=108	=108	=108
4C/	2.r	4C/	4C/	8.g\L	8.cc\L	8.ee-\L	8.ee-\L
.	.	.	.	16g\k	16cc\k	16ee-\k	16ee-\k
4C/	.	4C/	4C/	8.e-\	8.g\	8.cc\	8.cc\
.	.	.	.	16e-\k	16g\k	16cc\k	16cc\k
4C/	.	4C/	4C/	8.c\	8.ee-\	8.aa\	8.aa\
.	.	.	.	16c\Jk	16ee-\Jk	16aa\Jk	16aa\Jk
=109	=109	=109	=109	=109	=109	=109	=109
4D\	2.r	4D\	4D\	8.A\L	8.dd\L	8.ff#\L	8.ff#\L
.	.	.	.	16A\k	16dd\k	16ff#\k	16ff#\k
4D\	.	4D\	4D\	8.d\	8.ff#\	8.aa\	8.aa\
.	.	.	.	16d\k	16ff#\k	16aa\k	16aa\k
4D\	.	4D\	4D\	8.f#\	8.a\	8.cc\	8.cc\
.	.	.	.	16f#\Jk	16a\Jk	16cc\Jk	16cc\Jk
=110	=110	=110	=110	=110	=110	=110	=110
8.G\L	2.r	8.G\L	8.G\L	8.d\L	8.g\L	8.b-\L	8.b-\L
16G\k	.	16G\k	16G\k	16d\k	16g\k	16b-\k	16b-\k
8.G\	.	8.G\	8.G\	8.d\	8.dd\	8.gg\	8.gg\
16G\k	.	16G\k	16G\k	16d\k	16dd\k	16gg\k	16gg\k
8.G\	.	8.G\	8.G\	8.d\	8.g\	8.b-\	8.b-\
16G\Jk	.	16G\Jk	16G\Jk	16d\Jk	16g\Jk	16b-\Jk	16b-\Jk
=111	=111	=111	=111	=111	=111	=111	=111
8.D\L	2.r	8.D\L	8.D\L	8.d\L	8.f#\L	8.a\L	8.a\L
16D\k	.	16D\k	16D\k	16d\k	16f#\k	16a\k	16a\k
8.D\	.	8.D\	8.D\	8.d\	8.dd\	8.ff#\	8.ff#\
16D\k	.	16D\k	16D\k	16d\k	16dd\k	16ff#\k	16ff#\k
8.D\	.	8.D\	8.D\	8.d\	8.f#\	8.a\	8.a\
16D\Jk	.	16D\Jk	16D\Jk	16d\Jk	16f#\Jk	16a\Jk	16a\Jk
=112	=112	=112	=112	=112	=112	=112	=112
4GG/	2.r	4GG/	4GG/	4d\	4g/	4b-\	4b-\
4r	.	4r	4r	4r	4r	4r	4r
4r	.	4r	4r	4r	4r	4r	4r
=113	=113	=113	=113	=113	=113	=113	=113
8.BB-/L	2.r	8.BB-/L	8.BB-/L	8.B-\L	8.B-/L	8.B-/L	8.B-/L
16BB-/k	.	16BB-/k	16BB-/k	16B-\k	16B-/k	16B-/k	16B-/k
8.C/	.	8.C/	8.C/	8.c\	8.c/	8.c/	8.c/
16C/k	.	16C/k	16C/k	16c\k	16c/k	16c/k	16c/k
8.D/	.	8.D/	8.D/	8.d\	8.d/	8.d/	8.d/
16D/Jk	.	16D/Jk	16D/Jk	16d\Jk	16d/Jk	16d/Jk	16d/Jk
=114	=114	=114	=114	=114	=114	=114	=114
4GG/	2.r	4GG/	4GG/	4G/	4e-/	4g/	4g/
4r	.	4r	4r	4r	4r	4r	4r
4r	.	4r	4r	4r	4r	4r	4r
=115	=115	=115	=115	=115	=115	=115	=115
8.BB-/L	2.r	8.BB-/L	8.BB-/L	8.B-\L	8.B-/L	8.B-/L	8.B-/L
16BB-/k	.	16BB-/k	16BB-/k	16B-\k	16B-/k	16B-/k	16B-/k
8.C/	.	8.C/	8.C/	8.c\	8.c/	8.c/	8.c/
16C/k	.	16C/k	16C/k	16c\k	16c/k	16c/k	16c/k
8.D/	.	8.D/	8.D/	8.d\	8.d/	8.d/	8.d/
16D/Jk	.	16D/Jk	16D/Jk	16d\Jk	16d/Jk	16d/Jk	16d/Jk
=116	=116	=116	=116	=116	=116	=116	=116
4GG;/	2.r	4GG;/	4GG;/	4G;/	4d;/	4B-;/	4G;/
4r	.	4r	4r	4r	4r	4r	4r
4r	.	4r	4r	4r	4r	4r	4r
==	==	==	==	==	==	==	==
*-	*-	*-	*-	*-	*-	*-	*-
!!!ENC: Don Anthony
!!!END: 2005/06/10/
!!!ONB: Converted to Humdrum by Craig Sapp 2005/06/24/
